!!!COM: Chopin, Fr&egrave;d&egrave;ric
!!!OTL: Waltz in F minor
!!!SCT: Op. 70/2
**kern	**kern
*staff2	*staff1
*Ipiano	*Ipiano
*clefF4	*clefG2
*k[b-e-a-d-]	*k[b-e-a-d-]
*M3/4	*M3/4
4r	4cc\
=1!|:	=1!|:
*^	*
2.F\	4r	(4cc\
.	4A-/ 4c/	8dd-\L
.	.	8cc\
.	4A-/ 4c/	8b-\
.	.	8a-\J)
=2	=2	=2
2.E-\	4r	4.g/
.	4F/ 4A-/ 4c/	.
.	.	8f/
.	4F/ 4A-/ 4c/	4f/
=3	=3	=3
2D-\	4r	4ff\
.	2F/ 2B-/	(8b-\L
.	.	8cc\
4BB-\	.	8ee-\
.	.	8dd-\J)
*v	*v	*
=4	=4
4FF/	4.dd-\
4c\ 4a-\	.
.	(16ccq/LL
.	16dd-q/
.	16ee-q/JJ)
.	8cc\
4c\ 4a-\	4cc\
=5	=5
*^	*
4r	2.En\	(8bn\L
.	.	8cc\)
.	.	ee-q/
4B-/ 4c/ 4g/	.	(8dd-\
.	.	8cc\
4B-/ 4c/ 4g/	.	8ff\
.	.	8gg\J)
*v	*v	*
=6	=6
!!linebreak:original
*^	*
4r	2F\	8aa-\L
.	.	8a-\
4A-/ 4c/ 4f/	.	8een\
.	.	8gg\
4r	4AA-\	8ff\
.	.	8f\J
=7	=7	=7
4r	2BB-\	(8cc\L
.	.	8ee-\J)
4F/ 4G/ 4d-/	.	(8dd-/L
.	.	8d-/
4r	4BBB-\	8cc/
.	.	8b-/J)
*v	*v	*
=8	=8
4CC/	(8g/L
.	8cc/
4C\ 4G\ 4en\	8bn/
.	8cc/
4r	8dd-/
.	8ddn/J)
=9	=9
*^	*
4r	2.A-\	(4ee-\
4c/ 4e-/	.	8ff\L
.	.	8ee-\
4c/ 4e-/	.	8dd-\
.	.	8cc\J)
=10	=10	=10
2.G\	4r	4.b-\
.	4A-/ 4c/ 4e-/	.
.	.	8a-/
.	4A-/ 4c/ 4e-/	4a-/
=11	=11	=11
2.F\	4r	4aa-\
.	4A-/ 4c/ 4e-/	(8cc\L
.	.	8ee-\
.	4A-/ 4c/ 4e-/	8gg\
.	.	8ff\J)
*v	*v	*
=12	=12
!!linebreak:original
*^	*
4r	2.BB-\	4.ee-\
4A-/ 4B-/ 4dn/	.	.
.	.	8ddn\
4A-/ 4B-/ 4d/	.	4dd\
*v	*v	*
=13	=13
!!linebreak:original
*^	*
4r	2.BB-\	4.ccc\
4A-/ 4B-/ 4f/	.	.
.	.	8bb-\L
4A-/ 4B-/ 4f/	.	8aan\
.	.	8aa-\J
=14	=14	=14
4r	2.BB-\	8aa-\L
.	.	8gg\
4G/ 4B-/ 4e-/	.	8ff\
.	.	8ee-\
4G/ 4B-/ 4e-/	.	8ddn\
.	.	8cc\J
=15	=15	=15
4r	2.BB-\	(8cc\L
.	.	8b-\
4A-/ 4B-/ 4f/	.	8an\
.	.	8b-\
.	.	ddnq/
4A-/ 4B-/ 4f/	.	8cc\
.	.	8b-\J)
=16	=16	=16
4r	2.BB-\	(8cc\L
.	.	8b-\
4G/ 4B-/ 4e-/	.	8an\
.	.	8b-\
.	.	ddnq/
4G/ 4B-/ 4e-/	.	8cc\
.	.	8b-\J)
=17	=17	=17
4r	2.BB-\	4b-\
4A-/ 4B-/ 4dn/	.	(8ccc\L
.	.	8bb-\
4A-/ 4B-/ 4d/	.	8aan\
.	.	8aa-\J)
*v	*v	*
=18	=18
!!linebreak:original
4E-\	(8ff#\L
.	8gg\
4c\ 4e-\ 4g\	8ddn\
.	8ee-\J)
4An\ 4c\ 4g-\	(8e-/L
.	8cc/J)
=19	=19
!!linebreak:original
4BB-/	(8b-/L
.	8B-/
4B-\ 4e-\	8g/
.	8cc/
4A-\ 4dn\	8f/
.	8b-/J)
=20	=20
!!pagebreak:original
=	=
*^	*^
4r	2E-\	4.e-/	2.e-\
4G/ 4B-/	.	.	.
.	.	8dd-/	.
.	.	(16ccq/LL	.
.	.	16dd-q/	.
.	.	16ee-q/JJ	.
4B-/ 4en/	4C\ 4G\	8dd-/L	.
.	.	8cc/J)	.
*	*	*v	*v
=:|!	=:|!	=:|!
4r	2E-\	(2e-/
4G/ 4B-/ 4e-/	.	.
*v	*v	*
4r	4en/)
=21||	=21||
*^	*
2.D-\	4r	2f/
.	4F/ 4B-/ 4d-/	.
.	4F/ 4B-/ 4d-/	4g/
=22	=22	=22
2.BB-\	4r	4a-/
.	.	(16a-q/LL
.	.	16b-q/JJ)
.	4F/ 4A-/ 4d-/	(8g/L
.	.	8a-/
.	4E-/ 4G/ 4d-/	8cc/
.	.	8b-/J)
=23	=23	=23
2.E-\	4r	4r
.	4A-/ 4c/	(8dn/L
.	.	8f/
.	4A-/ 4c/	8e-/
.	.	8a-/J)
=24	=24	=24
2.EE-\	4r	2.c/
.	4E-/ 4A-/ 4c/	.
.	4E-/ 4A-/	.
*v	*v	*
=25	=25
4EE-/	(8G/L
.	8d-/
4E-\ 4G\ 4d-\	8e-/
.	8g/J
4G\ 4B-\ 4e-\	8dd-\L
.	8ff\J)
=26	=26
!!linebreak:original
.	[dd-q/
4E-\	2dd-\ 2ff\
4d-\ 4e-\ 4g\	.
4d-\ 4e-\ 4g\	4dd-\ 4ee-\
=27	=27
4AA-/	4cc\ 4ee-\
*clefG2	*
.	(16ee-q/LL
.	16ffq/JJ)
4e-/ 4a-/	(8bn\L 8ddn\
.	8cc\ 8ee-\
4e-/ 4a-/	8dd-\ 8ff\
.	8cc\J) 8ee-\
=28	=28
4AA-/	2cc\ 2aa-\
4E-\ 4A-\ 4c\	.
4E-\ 4A-\ 4c\	4g/
=29	=29
*^	*
2.D-\	4r	2f/
.	4F/ 4B-/ 4d-/	.
.	4F/ 4B-/ 4d-/	4g/
=30	=30	=30
2.BB-\	4r	4a-/
.	.	(16a-q/LL
.	.	16b-q/JJ)
.	4F/ 4d-/	(8g/L
.	.	8a-/
.	4E-/ 4G/ 4d-/	8cc/
.	.	8b-/J)
=31	=31	=31
2.AA-\	4r	4r
.	4E-/ 4A-/ 4c/	(8dn/L
.	.	8f/
.	4E-/ 4A-/ 4c/	8e-/
.	.	8a-/J)
=32	=32	=32
2.AA-\	4r	2.c/
.	4Dn/ 4F/	.
.	4D/ 4F/	.
*v	*v	*
=33	=33
!!pagebreak:original
4GG/	8G/L
.	8c/
4E-\ 4G\ 4c\	8e-/
.	8g/
4E-\ 4G\ 4c\	8.cc/
.	16ddn/Jk
=34	=34
.	[gq/
4GG/	2g/ 2ee-/
4G\ 4Bn\ 4e-\ 4g\	.
4G\ 4B\ 4e-\ 4g\	[4f/ [4ddn/
=35	=35
4C/	4..f/] 4..dd/]
4G\ 4c\ 4g\	.
.	16e-/ 16cc/
4G\ 4c\ 4g\	[4e-/ [4cc/
=36	=36
4C/	4..e-/] 4..cc/]
4G\ 4c\ 4g\	.
.	16e-/ 16cc/
4G\ 4c\ 4g\	(4e-/ 4cc/
=37	=37
*^	*
2.D-\	4r	4cc\)
.	4A-/ 4B-/	4f/
.	4A-/ 4B-/	4g/
=38	=38	=38
2.BB-\	4r	4a-/
.	.	(16a-q/LL
.	.	16b-q/JJ)
.	4F/ 4A-/ 4d-/	(8g/L
.	.	8a-/
.	4E-/ 4G/ 4d-/	8cc/
.	.	8b-/J)
=39	=39	=39
2.E-\	4r	4r
.	4A-/ 4c/	(8dn/L
.	.	8f/
.	4A-/ 4c/	8e-/
.	.	8a-/J)
*v	*v	*
=40	=40
!!linebreak:original
*^	*
2.EE-\	4r	2.c/
.	4E-/ 4A-/ 4c/	.
.	4E-/ 4A-/	.
*v	*v	*
=41	=41
4EE-/	(8G/L
.	8d-/
4E-\ 4G\ 4d-\	8e-/
.	8g/J)
4G\ 4B-\ 4e-\	(8dd-\L
.	8ff\J)
=42	=42
.	[dd-q/
4E-\	2dd-\ 2ff\
*clefG2	*
4d-/ 4e-/ 4g/	.
4d-/ 4e-/ 4g/	4dd-\ 4ee-\
=43	=43
4AA-/	4cc\ 4ee-\
*clefG2	*
.	(16ee-q/LL
.	16ffq/JJ)
4e-/ 4a-/	(8bn\L 8ddn\
.	8cc\ 8ee-\
4e-/ 4a-/	8dd-\ 8ff\
.	8cc\J) 8ee-\
=44	=44
4AA-/	2cc\ 2aa-\
4E-\ 4A-\ 4c\	.
4E-\ 4A-\ 4c\	4g/
=45	=45
*^	*
2.D-\	4r	2f/
.	4F/ 4B-/ 4d-/	.
.	4F/ 4B-/ 4d-/	4g/
=46	=46	=46
2.BB-\	4r	4a-/
.	.	(16a-q/LL
.	.	16b-q/JJ)
.	4F/ 4d-/	(8g/L
.	.	8a-/
.	4E-/ 4G/ 4d-/	8cc/
.	.	8b-/J)
*v	*v	*
=47	=47
!!linebreak:original
*^	*
2.GGG\ 2.AA-\	4r	4r
.	4E-/ 4A-/ 4c/	(8dn/L
.	.	8f/
.	4E-/ 4A-/ 4c/	8e-/
.	.	8a-/J)
=48	=48	=48
2.EE-\	4r	2.c/
.	4E-/ 4A-/	.
.	4E-/ 4A-/	.
=49	=49	=49
2.E-\	4r	4r
.	4A-/ 4B-/	(8dn/L
.	.	8e-/
.	4A-/ 4B-/	8f/
.	.	8g/J)
=50	=50	=50
2.E-\	4r	4f/
.	4A-/ 4B-/ 4dn/	(8en/L
.	.	8f/
.	4A-/ 4B-/ 4d/	8g/
.	.	8a-/J)
=51	=51	=51
2.E-\	4r	4a-/
.	4d-/ 4e-/	(8g/L
.	.	8a-/
.	4d-/ 4e-/	8b-/
.	.	8cc/J)
=52	=52	=52
2.AA-\	4r	2a-/
.	4E-/ 4A-/ 4c/	.
.	4En/ 4A-/ 4c/	4cc\
*v	*v	*
=53:|!	=53:|!
4AA-/	4a-/
4E-;\ 4c;\	4r
==	==
*-	*-
